icon/lg/kde.svg

<?xml version="1.0" encoding="UTF-8"?>
<svg viewBox="0 0 256 256" version="1.1" xmlns="http://www.w3.org/2000/svg" xmlns:xlink="http://www.w3.org/1999/xlink" preserveAspectRatio="xMidYMid" height="1em" width="1em">
  <g>
    <polygon fill="#1D99F3" points="256 1.61927898e-14 256 256.000005 0 256.000005 0 0"/>
    <path d="M143.02512,32.3090494 L111.145483,35.3609124 L111.145483,166.63176 L142.687973,161.882981 L142.687973,105.915077 L185.087227,167.990864 L218.326555,157.473451 L174.910704,97.7747358 L218.666661,41.4673593 L184.750085,33.6694393 L142.688715,89.9744745 L143.02512,32.3090494 Z M70.76168,64.2975998 C70.40168,64.3354665 70.054016,64.4941332 69.7836693,64.7654932 L57.2715893,77.2753812 C56.7455093,77.8030078 56.646416,78.6210292 57.034256,79.2598398 L71.6833013,103.386747 C69.0850773,107.754779 67.0026453,112.4644 65.5143253,117.432539 L38.6206976,123.026496 C37.8724571,123.181456 37.3333307,123.844453 37.3333307,124.612293 L37.3333307,142.304539 C37.3333307,143.05288 37.84524,143.700837 38.5662368,143.875072 L64.6692533,150.255456 C66.0612427,156.009429 68.2182933,161.464139 71.0691893,166.477557 L55.96,189.517408 C55.5384533,190.161429 55.62656,191.009547 56.1712,191.551904 L68.6788373,204.061792 C69.2049173,204.586379 70.0261493,204.689189 70.66768,204.303659 L94.344,189.924384 C98.9947093,192.608048 104.009995,194.720027 109.310912,196.152224 L114.835088,222.712443 C114.990555,223.465317 115.655808,223.999888 116.418704,223.999888 L134.113152,223.999888 C134.857029,223.999888 135.506171,223.491941 135.683717,222.762485 L142.190352,196.147461 C147.654656,194.672784 152.822576,192.474784 157.587035,189.669115 L180.918816,204.96728 C181.560347,205.38984 182.408837,205.305147 182.953376,204.760933 L195.465461,192.25112 C195.994741,191.722 196.089531,190.903883 195.700608,190.266736 L187.18312,176.229637 L184.427515,177.101035 C184.025808,177.228021 183.587771,177.078101 183.351472,176.728395 C183.351472,176.728395 177.918725,168.775515 170.902373,158.506261 C162.51456,174.921872 145.449941,186.166912 125.743755,186.166912 C97.7460587,186.166912 75.0478133,163.467824 75.0478133,135.468757 C75.0478133,114.871819 87.3331627,97.1581012 104.969072,89.2230612 L104.969072,76.1440585 C101.759328,77.2669438 98.6562827,78.6208372 95.7091253,80.2262878 C95.7069707,80.2243198 95.7048107,80.2188212 95.6963253,80.2113545 L71.8154827,64.5486185 C71.4938827,64.3384852 71.121088,64.2545918 70.7612267,64.2916052 L70.76168,64.2975998 Z" fill="#FCFCFC"/>
  </g>
</svg>

<svg width="256" height="256" xmlns="http://www.w3.org/2000/svg" preserveAspectRatio="xMidYMid"><path fill="#1D99F3" d="M256 0v256H0V0z"/><path d="m143.025 32.309-31.88 3.052v131.27l31.543-4.748v-55.968l42.4 62.076 33.239-10.518-43.416-59.698 43.756-56.308-33.917-7.798-42.061 56.305.336-57.665ZM70.762 64.298c-.36.037-.708.196-.978.467l-12.512 12.51a1.619 1.619 0 0 0-.238 1.985l14.65 24.127a62.616 62.616 0 0 0-6.17 14.046l-26.893 5.593a1.62 1.62 0 0 0-1.288 1.586v17.693c0 .748.512 1.396 1.233 1.57l26.103 6.38a62.537 62.537 0 0 0 6.4 16.223l-15.109 23.04a1.618 1.618 0 0 0 .211 2.034l12.508 12.51a1.63 1.63 0 0 0 1.989.242l23.676-14.38a62.6 62.6 0 0 0 14.967 6.228l5.524 26.56c.156.753.82 1.288 1.584 1.288h17.694c.744 0 1.393-.508 1.57-1.238l6.507-26.615a62.358 62.358 0 0 0 15.397-6.478l23.332 15.298c.641.423 1.49.338 2.034-.206l12.512-12.51c.53-.529.625-1.347.236-1.984l-8.518-14.037-2.755.871a.951.951 0 0 1-1.077-.373l-12.449-18.222c-8.387 16.416-25.452 27.66-45.158 27.66-27.998 0-50.696-22.698-50.696-50.697 0-20.597 12.285-38.31 29.921-46.246V76.144a62.454 62.454 0 0 0-9.26 4.082c-.002-.002-.004-.007-.013-.015L71.816 64.55a1.622 1.622 0 0 0-1.055-.257v.006Z" fill="#FCFCFC"/></svg>
